X:1
T: The Bridge of Bracklin
C:
R:Reel
Q: 232
K:D
M:4/4
L:1/8
|:a|bagf d2a2|f2a2 d2a2|ba gf d2a2|f2e2 e2a2|
ba gf d2a2|f2a2 e2f2|d2B2 A2F2|D2D2 D2A2|
FGA2 d2A2|B2A2 d2A2|FGA2 d2f2|e2E2 E2G2|
FGA2 d2A2|F2A2 d2b2|a2f2 e2f2|d2d2 d3:|
